frontend/public/svg/files/file-image.svg

<svg width="142" height="174" viewBox="0 0 142 174" fill="none" xmlns="http://www.w3.org/2000/svg">
<g clip-path="url(#clip0)">
<path d="M140.574 92.148C140.754 108.639 140.994 125.129 141.082 141.621C141.113 147.449 140.658 153.279 140.622 159.109C140.57 167.485 134.059 172.548 126.472 172.708C110.982 173.036 95.4872 173.397 79.9963 173.32C61.8053 173.228 43.6149 172.754 25.4284 172.284C21.1686 172.07 16.9241 171.617 12.7152 170.927C7.57737 170.211 2.50251 164.344 2.3148 158.755C1.84092 144.631 1.30934 130.506 1.15379 116.378C0.811838 85.2952 0.732428 54.2094 0.42198 23.1266C0.378005 18.7114 0.383912 14.3974 2.06282 10.2402C3.54352 6.56468 5.60704 3.44306 9.68618 2.31285C10.983 1.9677 12.315 1.77255 13.6564 1.73086C19.4892 1.5018 25.3392 1.52068 31.1583 1.13541C52.4932 -0.277026 73.8248 0.820507 95.159 0.993124C97.2134 0.948027 99.2552 1.32076 101.161 2.08851C103.067 2.85626 104.798 4.00284 106.247 5.45929C113.161 12.0227 120.577 18.0568 127.734 24.3668C130.679 26.9627 133.47 29.733 136.369 32.382C137.179 33.0789 137.835 33.9363 138.296 34.9003C138.758 35.8642 139.013 36.9133 139.047 37.9813C139.282 43.9199 139.69 49.8562 139.743 55.796C139.854 67.9134 139.776 80.0327 139.776 92.152L140.574 92.148ZM93.2753 9.37294C91.3142 9.21673 89.657 8.99482 87.9958 8.96725C73.8517 8.72743 59.7075 8.51011 45.5629 8.31538C39.1689 8.22677 32.7735 8.19067 26.3788 8.15129C23.1299 8.1316 19.8739 8.03013 16.6329 8.19553C12.0995 8.42722 10.6963 9.72231 9.88243 14.1506C9.0643 18.3395 8.87114 22.6262 9.30938 26.8717C9.57113 29.2121 9.70397 31.5653 9.70718 33.9202C9.77676 73.6295 9.83031 113.338 9.86799 153.046C9.83878 153.943 9.88026 154.841 9.99197 155.731C10.8176 160.851 13.5133 163.93 19.1046 164.156C40.7684 165.029 62.432 165.024 84.1037 164.656C95.1045 164.47 106.107 164.383 117.11 164.262C119.801 164.232 122.499 164.339 125.183 164.192C129.592 163.951 131.915 161.526 131.867 157.075C131.815 152.259 131.446 147.446 131.367 142.629C131.271 136.798 131.466 130.96 131.301 125.132C130.897 110.783 130.204 96.4405 129.923 82.0897C129.701 70.6523 129.923 59.2075 129.942 47.7636C129.942 46.7909 129.942 45.819 129.942 44.8293C129.524 44.7269 129.099 44.6557 128.67 44.6165C121.824 44.753 114.978 44.9595 108.132 45.0107C106.113 45.0261 104.1 44.8082 102.131 44.3614C97.5744 43.3185 96.1941 41.6503 95.7386 36.9706C95.3704 33.1776 95.1059 29.3738 94.7665 25.5782C94.3005 20.3407 93.8043 15.1054 93.2753 9.37294ZM102.715 14.948L102.076 15.1845C103.168 22.3425 104.259 29.5001 105.397 36.9692C111.961 36.2617 118.36 36.297 125.466 35.6092L102.715 14.948Z" fill="black"/>
<path d="M79.979 109.48C85.1818 105.685 90.1523 102.026 95.1555 98.422C99.0785 95.5997 101.541 95.6956 104.922 99.2089C107.483 101.876 109.85 104.724 112.004 107.73C114.744 111.549 117.023 115.699 119.778 119.506C122.856 123.761 124.455 128.572 125.889 133.505C126.804 136.655 125.287 139.358 121.933 139.993C120.158 140.271 118.362 140.395 116.565 140.367C113.198 140.415 109.829 140.345 106.462 140.364C82.9942 140.501 59.5271 140.651 36.0595 140.812C32.5809 140.839 29.1023 141.186 25.6237 141.285C24.0545 141.358 22.4819 141.264 20.9329 141.001C17.052 140.263 15.6317 136.441 18.095 133.38C22.3835 128.05 26.7586 122.791 31.0773 117.482C34.0511 113.826 36.8662 110.031 39.966 106.486C43.8785 102.013 47.9025 97.6265 52.0801 93.4004C55.0657 90.3812 58.589 89.9218 62.1844 92.4519C66.0765 95.284 69.7612 98.3911 73.2109 101.749C75.6446 104.04 77.651 106.783 79.979 109.48ZM26.009 133.854C46.6489 132.886 66.9245 133.098 87.7704 133.296C86.7984 132.033 86.2234 131.247 85.6097 130.495C81.2123 125.109 76.885 119.666 72.3885 114.37C69.1278 110.527 65.7122 106.807 62.2225 103.169C60.8632 101.753 59.1108 100.713 57.4594 99.4419C53.2688 102.824 49.4017 106.589 45.9079 110.687C42.13 115.133 38.2346 119.482 34.4259 123.901C31.5938 127.194 28.8142 130.535 26.009 133.854ZM98.6413 105.549L83.9079 115.152L98.1373 132.392L116.951 131.818C113.328 124.928 101.526 107.961 98.6413 105.55V105.549Z" fill="black"/>
<path d="M83.7801 86.7904C80.1171 86.8442 76.8583 83.8506 76.8701 80.4436C76.8826 77.0241 80.5877 73.7135 84.3734 73.7404C87.5035 73.7627 90.4983 76.8908 90.497 80.1364C90.4951 83.5697 87.2994 86.7392 83.7801 86.7904Z" fill="black"/>
</g>
<defs>
<clipPath id="clip0">
<rect width="141.113" height="173.93" fill="white" transform="translate(0.334473 0.0107422)"/>
</clipPath>
</defs>
</svg>

<svg xmlns="http://www.w3.org/2000/svg" width="142" height="174" fill="none" viewBox="0 0 142 174"><g fill="#000" clip-path="url(#a)"><path d="M140.574 92.148c.18 16.491.42 32.981.508 49.473.031 5.828-.424 11.658-.46 17.488-.052 8.376-6.563 13.439-14.15 13.599-15.49.328-30.985.689-46.476.612-18.19-.092-36.381-.566-54.568-1.036-4.26-.214-8.504-.667-12.713-1.357-5.138-.716-10.212-6.583-10.4-12.172-.474-14.124-1.006-28.249-1.161-42.377C.812 85.295.732 54.209.422 23.127c-.044-4.416-.038-8.73 1.64-12.887 1.482-3.675 3.545-6.797 7.624-7.927a17.6 17.6 0 0 1 3.97-.582c5.833-.23 11.683-.21 17.502-.596C52.493-.277 73.825.821 95.16.993a15.17 15.17 0 0 1 11.088 4.466c6.914 6.564 14.33 12.598 21.487 18.908 2.945 2.596 5.736 5.366 8.635 8.015a7.7 7.7 0 0 1 2.678 5.6c.235 5.938.643 11.874.696 17.814.111 12.117.033 24.237.033 36.356zM93.275 9.373c-1.96-.156-3.618-.378-5.28-.406q-21.214-.36-42.432-.652c-6.394-.088-12.79-.124-19.184-.164-3.25-.02-6.505-.12-9.746.045-4.533.231-5.937 1.526-6.75 5.955a43.2 43.2 0 0 0-.574 12.72c.262 2.341.395 4.694.398 7.05q.104 59.562.161 119.125c-.03.897.012 1.795.124 2.685.826 5.12 3.521 8.199 9.113 8.425 21.663.873 43.327.868 64.999.5 11-.186 22.003-.273 33.006-.394 2.691-.03 5.389.077 8.073-.07 4.409-.241 6.732-2.666 6.684-7.117-.052-4.816-.421-9.629-.5-14.446-.096-5.831.099-11.669-.066-17.497-.404-14.349-1.097-28.692-1.378-43.042-.222-11.438 0-22.882.019-34.326v-2.935a9 9 0 0 0-1.272-.212c-6.846.136-13.692.343-20.538.394a26.2 26.2 0 0 1-6.001-.65c-4.557-1.042-5.937-2.71-6.392-7.39-.369-3.793-.633-7.597-.973-11.393-.466-5.237-.962-10.473-1.49-16.205m9.44 5.575-.639.236 3.321 21.785c6.564-.707 12.963-.672 20.069-1.36z"/><path d="M79.979 109.48c5.203-3.795 10.173-7.454 15.177-11.058 3.922-2.822 6.385-2.726 9.766.787a77 77 0 0 1 7.082 8.521c2.74 3.819 5.019 7.969 7.774 11.776 3.078 4.255 4.677 9.066 6.111 13.999.915 3.15-.602 5.853-3.956 6.488a31.5 31.5 0 0 1-5.368.374c-3.367.048-6.736-.022-10.103-.003q-35.202.206-70.402.448c-3.48.027-6.958.374-10.436.473a22 22 0 0 1-4.691-.284c-3.881-.738-5.301-4.56-2.838-7.621 4.289-5.33 8.664-10.589 12.982-15.898 2.974-3.656 5.79-7.451 8.889-10.996 3.913-4.473 7.937-8.86 12.114-13.086 2.986-3.019 6.509-3.478 10.104-.948a101 101 0 0 1 11.027 9.297c2.434 2.291 4.44 5.034 6.768 7.731m-53.97 24.374c20.64-.968 40.915-.756 61.761-.558-.972-1.263-1.547-2.049-2.16-2.801-4.398-5.386-8.725-10.829-13.222-16.125-3.26-3.843-6.676-7.563-10.166-11.201-1.359-1.416-3.111-2.456-4.763-3.727a87 87 0 0 0-11.551 11.245c-3.778 4.446-7.673 8.795-11.482 13.214-2.832 3.293-5.612 6.634-8.417 9.953m72.632-28.305-14.733 9.603 14.23 17.24 18.813-.574c-3.623-6.89-15.425-23.857-18.31-26.268zM83.78 86.79c-3.663.054-6.922-2.94-6.91-6.346.013-3.42 3.718-6.73 7.503-6.704 3.13.023 6.125 3.15 6.124 6.396-.002 3.434-3.198 6.603-6.717 6.654"/></g><defs><clipPath id="a"><path fill="#fff" d="M.334.01h141.113v173.93H.334z"/></clipPath></defs></svg>
